X:1
T:Title
%%score { ( 1 3 ) | ( 2 4 ) }
L:1/8
Q:1/4=100
M:6/8
K:Bb
V:1 treble nm="Grand Piano"
V:3 treble 
V:2 bass 
V:4 bass 
V:1
 [DF][DG][DA] [FB][Fc][Fd] | dcG c3 | cBA AEG | [DF]6 | [DF][DG][DA] [FB][Fc][Fd] | dcG c3 | %6
w: Grant~C.~Tullar * * * * *||||||
 [=Ec][Ed][Ec] [EB][EA][EG] |[M:7/8] F-F-F- F3 z |[M:3/4] d2- [Ad-] [Gd-]2 [^Fd] | %9
w: |||
 d2- [Gd-] [Fd]3 | [DF][DG] [DA][Fc] [FB][FG] | B6 | e6 | d6 | [=Ec][E=B] [Ec][Ed] [Ec][EG] | c6 | %16
w: |||||||
 d6 | d6 | [Fd][Ec] [DB][FA] [Fc][B,FB] | A4 z2 | G^F Gc =Bc | %21
w: |||||
[M:15/16] [DF][_D=E]/-[DE]/[=DF][Fd]3/2- [Fd]3 | %22
w: |
[M:3/4] [=Ed][Ec] [EG]d cF[Q:1/4=97][Q:1/4=94][Q:1/4=91][Q:1/4=88][Q:1/4=84][Q:1/4=81][Q:1/4=78] | %23
w: |
 B6 |] %24
w: |
V:2
 [B,,B,][B,,B,][B,,B,] [D,B,][D,B,][D,B,] | [E,G,E][E,G,E][E,B,E] [E,G,E]3 | %2
 [F,E][F,G,E][F,A,E] [F,CE][F,A,C][F,A,E] | [B,,B,]6 | [B,,B,][B,,B,][B,,B,] [D,B,][D,B,][D,B,] | %5
 [E,G,E][E,G,E][E,B,E] [E,G,E]3 | [C,G,][C,B,][C,A,] [C,G,][C,C][C,B,] | %7
[M:7/8] F,2- [F,-B,] [F,C]3 z |[M:3/4] z[K:treble] B F, [B,E]2[K:bass] F, | z =E F, [B,D]2 F, | %10
 [B,,B,][B,,B,] [B,,B,][D,B,] [D,B,][_D,B,] | [C,C][C,C] [C,C] .[F,C]3 | z A F, [A,E]2 F, | %13
 z =E F, [B,D]2 F, | [C,B,][C,B,] [C,B,][C,G,] [C,C][C,B,] | [A,F]C B, .A,3 | %16
 z[K:treble] B F, [B,D]2[K:bass] F, | z =E F, [B,D]2 F, | [B,,B,][B,,F,] [B,,F,][D,B,] [D,B,]D, | %19
 z B, B, .[B,E]3 | [E,B,E][E,A,E] [E,B,E][E,G,E] [E,G,E][E,G,E] | %21
[M:15/16] [B,,B,][B,,B,]/-[B,,B,]/[B,,B,][B,,B,]3/2- [B,,B,]3 | %22
[M:3/4] [C,B,][C,B,] [C,B,][F,A,E] [F,A,E][F,A,E] | z E, G, .F,3 |] %24
V:3
 x6 | x6 | x6 | x6 | x6 | x6 | x6 |[M:7/8] z CD E3 z |[M:3/4] .F2 z2 z2 | .F2 z2 z2 | x6 | %11
 EE E .E3 | .F2 B c2 G | .F2 G F3 | x6 | z A G .F3 | .F2 A G2 ^F | .F2 G F3 | x6 | [B,F]F F .G3 | %20
 x6 |[M:15/16] x15/2 |[M:3/4] x6 | [B,D]C E .D3 |] %24
V:4
 x6 | x6 | x6 | x6 | x6 | x6 | x6 |[M:7/8] A,2 z z z z2 |[M:3/4] B,,2[K:treble] z2 z2[K:bass] | %9
 B,,2 z2 z2 | x6 | x6 | F,,2 z2 z2 | B,,2 z2 z2 | x6 | F,6 | B,,2[K:treble] z2 z2[K:bass] | %17
 B,,2 z2 z2 | x6 | E,6 | x6 |[M:15/16] x15/2 |[M:3/4] x6 | B,,6 |] %24

